X: 20142
Q: "Alleg.o"
M: 6/8
L: 1/8
K: G
(DG)G G>FG | ABA A2G | (GB).d (dc).B | AcB A>GF |\
(BGB) (dBd) | (g>f).e (dc).B | cac BgB | A>BA AGA |\


